!!!!SEGMENT: T585_Hon-w6p20s1-2.krn
!!!COM: Honegger, Arthur
!!!OTL: III: Adagio
!!!AGN: Instrumental
!!!AGN-sub: Chamber
!!!CNT: Swiss,French
!!!ODT: 1918
!!!OPR: Sonata No. 1 for Violin and Piano
!!!filename: T585_Hon-w6p20s1-2.krn
**kern	**kern	**dynam	**kern	**dynam
*grp:A	*grp:A	*	*grp:B	*
*part2	*part2	*	*part1	*
*staff3	*staff2	*	*staff1	*
*I"Piano	*	*	*I"Violin	*
*I'pf	*	*	*I'vn	*
*ICklav	*ICklav	*	*ICstr	*
*Ipiano	*Ipiano	*	*Ivioln	*
*clefF4	*clefF4	*	*clefG2	*
*k[f#c#g#d#]	*k[f#c#g#d#]	*	*k[f#c#g#d#]	*
*E:	*E:	*	*E:	*
*M10/4	*M10/4	*	*M3/4	*
*^	*^	*	*	*
!	!	!	!	!LO:DY:t= [sempre %s e sostenuto]	!LO:TX:t=[quarter]=56	!LO:DY:ed=brack
4CC#\	2GG#/	4C# 4c#	2G#	pp	]8f#L	pp
.	.	.	.	.	([8eJ	.
4DD#\	.	4D# 4d#	.	.	4e]	.
4EE\	2GG#/	4E 4e	2G#	.	[4B#X	.
=-	=-	=-	=-	=	=	=
4EE\	.	4E 4e	.	.	8B#L]	.
.	.	.	.	.	8B#XJ	.
4DD#\	2GG#/	4D# 4d#	2G#	.	4c#	.
4CC#\	.	4C# 4c#	.	.	4d#)	.
=-	=-	=-	=-	=	=	=
*	*	*	*	*	*M4/4	*
!	!	!	!	!	!LO:TX:t=P:problem:missing 4/4 time signature	!
4DD#\	1GG#/	4D# 4d#	1G#	.	2c#	>
2GGG#\	.	2GG# 2G#	.	.	.	.
.	.	.	.	.	(4.Bn~	.
4GGG#\	.	4GG# 4G#	.	.	.	.
.	.	.	.	.	8B~)	]]
=1	=1	=1	=1	=1	=1	=1
*	*	*	*	*	*M3/4	*
4CC#\	2GG#/	4C# 4c#	2G#	.	([2B	.
4DD#\	.	4D# 4d#	.	.	.	.
4EE\	2GG#/	4E 4e	2G#	.	8BL]	.
.	.	.	.	.	[8AJ	.
=-	=-	=-	=-	=	=	=
4EE\	.	4E 4e	.	.	8AL]	.
.	.	.	.	.	8A#XJ)	.
4DD#\	2GG#/	4D# 4d#	2G#	.	(4.c#	.
4CC#\	.	4C# 4c#	.	.	.	.
.	.	.	.	.	8f##X)	.
=-	=-	=-	=-	=	=	=
*	*	*	*	*	*M4/4	*
!	!	!	!	!	!LO:TX:t=P:problem:missing 4/4 time signature	!
4DD#\	1GG#/	4D# 4d#	1G#	.	(4.f##X	<
2GGG#\	.	2GG# 2G#	.	.	.	.
.	.	.	.	.	8g#)	.
.	.	.	.	.	(4a	[
4GGG#\	.	4GG# 4G#	.	.	4b)	.
=2	=2	=2	=2	=2	=2	=2
*	*	*	*	*	*M3/4	*
4CC#\	2GG#/	4C# 4c#	2G#	.	((4.b-X	>
4DD#\	.	4D# 4d#	.	.	.	.
.	.	.	.	.	8a)	.
4EE\	2GG#/	4E 4e	2G#	.	4a)	.
=-	=-	=-	=-	=	=	=
4EE\	.	4E 4e	.	.	([2g#X	]
4DD#\	2GG#/	4D# 4d#	2G#	.	.	.
4CC#\	.	4C# 4c#	.	.	8g#L]	.
.	.	.	.	.	8gnJ)	.
=-	=-	=-	=-	=	=	=
*	*	*	*	*	*M4/4	*
!	!	!	!	!	!LO:TX:t=P:problem:missing 4/4 time signature	!
4DD#\	1GG#/	4D# 4d#	1G#	.	(4g	.
2GGG#\	.	2GG# 2G#	.	.	4f#X)	.
.	.	.	.	.	(4.fn	.
4GGG#\	.	4GG# 4G#	.	.	.	.
.	.	.	.	.	8e)	.
=3	=3	=3	=3	=3	=3	=3
*	*	*	*	*	*M3/4	*
4CC#\	2GG#/	4C# 4c#	2G#	.	([2.e	.
4DD#\	.	4D# 4d#	.	.	.	.
4EE\	2GG#/	4E 4e	2G#	.	.	.
=-	=-	=-	=-	=	=	=
4EE\	.	4E 4e	.	.	8eL]	.
.	.	.	.	.	8d#J	.
4DD#\	2GG#/	4D# 4d#	2G#	.	2B)	.
4CC#\	.	4C# 4c#	.	.	.	.
=-	=-	=-	=-	=	=	=
*	*	*	*	*	*M4/4	*
!	!	!	!	!	!LO:TX:t=P:problem:missing 4/4 time signature	!
4DD#\	1GG#/	4D# 4d#	1G#	.	(4cn	.
2GGG#\	.	2GG# 2G#	.	.	4B)	.
.	.	.	.	.	(4.B-X	.
4GGG#\	.	4GG# 4G#	.	.	.	.
.	.	.	.	.	8A)	.
=4	=4	=4	=4	=4	=4	=4
*	*	*	*	*	*M3/4	*
4CC#\	2GG#/	4C# 4c#	2G#	.	[2A	.
4DD#\	.	4D# 4d#	.	.	.	.
4EE\	2GG#/	4E 4e	2G#	.	8AL]	.
.	.	.	.	.	([8AJ	.
=-	=-	=-	=-	=	=	=
4EE\	.	4E 4e	.	.	8AL]	.
.	.	.	.	.	8G#J)	.
4DD#\	2GG#/	4D# 4d#	2G#	.	4r	.
4CC#\	.	4C# 4c#	.	.	4r	.
=-	=-	=-	=-	=	=	=
*	*	*	*	*	*M4/4	*
!	!	!	!	!	!LO:TX:t=P:problem:missing 4/4 time signature	!
4DD#\	1GG#/	4D# 4d#	1G#	.	2r	.
2GGG#\	.	2GG# 2G#	.	.	.	.
.	.	.	.	.	4r	.
4GGG#\	.	4GG# 4G#	.	.	8r	.
.	.	.	.	.	([8A	.
=5	=5	=5	=5	=5	=5	=5
*	*	*	*	*	*M3/4	*
4CC#\	2GG#/	4C#	2ryy	.	4A_	.
4DD#\	.	4D#	.	.	8AL]	.
.	.	.	.	.	8G#J)	.
4EE\	2GG#/	4E	2ryy	.	4r	.
=-	=-	=-	=-	=	=	=
4EE\	.	4E	.	.	4r	.
4DD#\	2GG#/	4D#	2ryy	.	4r	.
4CC#\	.	4C#	.	.	8r	.
.	.	.	.	.	([8A-X	pp >
=-	=-	=-	=-	=	=	=
*	*	*	*	*	*M4/4	*
!	!	!	!	!	!LO:TX:t=P:problem:missing 4/4 time signature	!
4DD#\	1GG#/	4D#	1ryy	.	2A-]	.
2GGG#\	.	2GG#	.	.	.	]
.	.	.	.	.	4Gn)	.
4GGG#\	.	4GG#	.	.	4r	.
*v	*v	*	*	*	*	*
*	*v	*v	*	*	*
=	=	=	=	=
*-	*-	*-	*-	*-
!!!system-decoration: s1[({(s2,s3)})]
!!!EED2: Rafael Laurindo
!!!EEV2: 2022/02/10
!!!EED3: Bryan Bell
!!!Suter_Work_ID: Hon-6
!!!Suter_Example_Number: 585
!!!Suter_Example_ID: Hon-6/20/lignes 1 et 2
!!!Premiere_Location: Paris,France
!!!Other_Tsigs: none
!!!Full_Unit_Duration: 8:13
!!!First_Publication_Year: 1921
!!!First_Public_Performance_Year: 1918
!!!Example_Total_Measures: 18
!!!Example_Timestamp_Duration: 66
!!!Example_Start_Tsig_Type: polymetric
!!!Example_Start_Tsig_Mean_Beat_Rate: 56
!!!Example_Start_Tsig_Beat_Rate: 56;56
!!!Example_Start_Tsig_Beat: quarter;quarter
!!!Example_Start_Tsig: 10/4(4+2+4);3/4+3/4+4/4
!!!Example_Start_Timestamp: 0:55
!!!Example_Start_Tempo_Expression: [Adagio]
!!!Example_Start_Notated_Beat_Rate: [56]
!!!Example_Start_Notated_Beat: [quarter]
!!!Example_Start_Measure: 16
!!!Example_Metadata_Validated: Y
!!!Example_End_Timestamp: 2:01
!!!Example_End_Measure: 33
!!!Example_Dataset: T
!!!Editorial_Comments: Example Start Notated Beat and Example Start Notated Beat Rate [quarter=56] based on most recent notated beat rate (SWFU, m. 1). Example Start Tempo Expression [Adagio] based on most recent notated tempo expression (SWFU, m. 1).
!!!Death_Place: Paris,France
!!!Death_Date: 27-Nov-1955
!!!Changing_Tsig: no
!!!Birth_Place: Le Havre,France
!!!Birth_Date: 10-Mar-1892
!!!Audio_Example_Quarter_Note_Tempo:
!!!Audio_Example_Duration:
!!!EEV3: 2023/06/05
